remix/Device/battery-share-fill.svg

<svg viewBox="0 0 24 24" fill="currentColor" xmlns="http://www.w3.org/2000/svg"><path d="M14 2C14.5523 2 15 2.44772 15 3V4H18C18.5523 4 19 4.44772 19 5V11.2L15 8V11H14C11.8578 11 10 12.79 10 15V18H12V15C12 13.95 12.95 13 14 13H15V16L19 12.8V21C19 21.5523 18.5523 22 18 22H6C5.44772 22 5 21.5523 5 21V5C5 4.44772 5.44772 4 6 4H9V3C9 2.44772 9.44772 2 10 2H14Z"/></svg>

<svg viewBox="0 0 24 24" xmlns="http://www.w3.org/2000/svg"><path fill="none" d="M0 0h24v24H0Z"/><path d="M14 2v0c.55 0 1 .44 1 1v1h3v0c.55 0 1 .44 1 1v6.2L15 8v3h-1c-2.15 0-4 1.79-4 4v3h2v-3c0-1.05.95-2 2-2h1v3l4-3.2V21v0c0 .55-.45 1-1 1H6v0c-.56 0-1-.45-1-1V5v0c0-.56.44-1 1-1h3V3v0c0-.56.44-1 1-1h4Z"/></svg>
